src/widgets/themes/light/images/show_password_hover.svg

<?xml version="1.0" encoding="UTF-8"?>
<svg width="22px" height="22px" viewBox="0 0 22 22" version="1.1" xmlns="http://www.w3.org/2000/svg" xmlns:xlink="http://www.w3.org/1999/xlink">
    <!-- Generator: Sketch 46.2 (44496) - http://www.bohemiancoding.com/sketch -->
    <title>show_password_hover</title>
    <desc>Created with Sketch.</desc>
    <defs>
        <linearGradient x1="50%" y1="0%" x2="50%" y2="96.8191964%" id="linearGradient-1">
            <stop stop-color="#8CCFFF" offset="0%"></stop>
            <stop stop-color="#4BB8FF" offset="100%"></stop>
        </linearGradient>
        <rect id="path-2" x="0" y="0" width="24" height="24"></rect>
        <filter x="-8.3%" y="-4.2%" width="116.7%" height="116.7%" filterUnits="objectBoundingBox" id="filter-3">
            <feOffset dx="0" dy="1" in="SourceAlpha" result="shadowOffsetOuter1"></feOffset>
            <feGaussianBlur stdDeviation="0.5" in="shadowOffsetOuter1" result="shadowBlurOuter1"></feGaussianBlur>
            <feComposite in="shadowBlurOuter1" in2="SourceAlpha" operator="out" result="shadowBlurOuter1"></feComposite>
            <feColorMatrix values="0 0 0 0 0   0 0 0 0 0   0 0 0 0 0  0 0 0 0.05 0" type="matrix" in="shadowBlurOuter1"></feColorMatrix>
        </filter>
    </defs>
    <g id="输入框" stroke="none" stroke-width="1" fill="none" fill-rule="evenodd">
        <g id="show_password_normal" transform="translate(-1.000000, -1.000000)">
            <g id="按钮背景-2">
                <use fill="black" fill-opacity="1" filter="url(#filter-3)" xlink:href="#path-2"></use>
                <use fill="url(#linearGradient-1)" fill-rule="evenodd" xlink:href="#path-2"></use>
                <rect stroke-opacity="0.2" stroke="#0076F3" stroke-width="1" x="0.5" y="0.5" width="23" height="23"></rect>
            </g>
            <g id="eye" transform="translate(7.000000, 9.000000)">
                <path d="M0.5592708,3.6287071 C1.23885412,2.75604045 2.81171519,0.0489849546 5.59022902,0.0489849546 C8.36884007,0.0489849546 9.6238817,1.83884602 10.6212845,3.6287071" id="Stroke-1" stroke="#FFFFFF" stroke-linecap="round"></path>
                <path d="M9.261933,3.3305751 C9.261933,4.88515839 7.60429415,6.14545003 5.5594192,6.14545003 C3.51464146,6.14545003 1.85700261,4.88515839 1.85700261,3.3305751" id="Stroke-3" stroke="#FFFFFF" stroke-linecap="round"></path>
                <path d="M7.593551,3.1425961 C7.593551,4.2468461 6.698329,5.1420681 5.594079,5.1420681 C4.489732,5.1420681 3.59451,4.2468461 3.59451,3.1425961 C3.59451,2.0383461 4.489732,1.1431231 5.594079,1.1431231 C6.698329,1.1431231 7.593551,2.0383461 7.593551,3.1425961" id="Fill-5" fill="#FFFFFF"></path>
            </g>
        </g>
    </g>
</svg>

<svg height="26" viewBox="0 0 24 26" width="24" xmlns="http://www.w3.org/2000/svg">
  <g fill="none" fill-rule="evenodd" transform="translate(7 10)">
    <path d="m.55927 3.62871c.67958-.87267 2.25245-3.57973 5.03096-3.57973 2.77861 0 4.03365 1.78987 5.03105 3.57973" stroke="#fff" stroke-linecap="round"/>
    <path d="m9.26193 3.33058c0 1.55458-1.65764 2.81487-3.70251 2.81487-2.04478 0-3.70242-1.26029-3.70242-2.81487" stroke="#fff" stroke-linecap="round"/>
    <path d="m7.59355 3.1426c0 1.10425-.89522 1.99947-1.99947 1.99947-1.10435 0-1.99957-.89522-1.99957-1.99947s.89522-1.99948 1.99957-1.99948c1.10425 0 1.99947.89523 1.99947 1.99948" fill="#fff"/>
  </g>
</svg>
